cutejava-front/src/assets/icons/svg/pm.svg

<?xml version="1.0" standalone="no"?><!DOCTYPE svg PUBLIC "-//W3C//DTD SVG 1.1//EN" "http://www.w3.org/Graphics/SVG/1.1/DTD/svg11.dtd"><svg t="1608282863226" class="icon" viewBox="0 0 1024 1024" version="1.1" xmlns="http://www.w3.org/2000/svg" p-id="2380" xmlns:xlink="http://www.w3.org/1999/xlink" width="200" height="200"><defs><style type="text/css"></style></defs><path d="M510.843999 79.330558L101.222324 295.755592v432.850067l409.621675 216.425033 409.621675-216.425033V295.755592L510.843999 79.330558z m285.026459 235.065547l-285.423834 155.482114-291.420589-151.905736 291.817964-154.181613 285.026459 150.605235zM175.892754 379.674028l297.597968 155.120864v306.051224l-297.597968-157.25224V379.674028z m372.268397 461.172088v-306.52085l297.634093-162.092993v311.361603l-297.634093 157.25224z" p-id="2381"></path></svg>

<svg class="icon" viewBox="0 0 1024 1024" xmlns="http://www.w3.org/2000/svg" width="200" height="200"><defs><style/></defs><path d="M510.844 79.33L101.222 295.757v432.85L510.844 945.03l409.622-216.425v-432.85L510.844 79.33zM795.87 314.397L510.447 469.878 219.026 317.972l291.818-154.181L795.87 314.396zm-619.977 65.278l297.598 155.12v306.052L175.893 683.594v-303.92zM548.16 840.846v-306.52l297.634-162.094v311.362L548.161 840.846z"/></svg>
